packages/foundations/assets/icons/functional/images/arrows/chevron_down.svg

<svg xmlns="http://www.w3.org/2000/svg" width="32" height="32" fill="none"><path fill="#1A1C1F" fill-rule="evenodd" d="M7.77 11.04c-.537.1-.876.674-.73 1.234.055.21.459.632 4.204 4.383 2.278 2.283 4.203 4.182 4.278 4.222.22.117.499.147.75.081.213-.056.616-.441 4.385-4.204 2.283-2.278 4.182-4.203 4.222-4.278.257-.483.064-1.118-.413-1.365-.18-.093-.566-.119-.813-.055-.114.03-1.225 1.106-3.906 3.785L16 18.586l-3.747-3.743c-2.66-2.658-3.789-3.752-3.893-3.773-.309-.063-.393-.067-.59-.03"/></svg>

<svg width="32" height="32" viewBox="0 0 32 32" fill="none" xmlns="http://www.w3.org/2000/svg"><path d="M7.770 11.040 C 7.233 11.140,6.894 11.714,7.040 12.274 C 7.095 12.484,7.499 12.906,11.244 16.657 C 13.522 18.940,15.447 20.839,15.522 20.879 C 15.742 20.996,16.021 21.026,16.272 20.960 C 16.485 20.904,16.888 20.519,20.657 16.756 C 22.940 14.478,24.839 12.553,24.879 12.478 C 25.136 11.995,24.943 11.360,24.466 11.113 C 24.286 11.020,23.900 10.994,23.653 11.058 C 23.539 11.088,22.428 12.164,19.747 14.843 L 16.000 18.586 12.253 14.843 C 9.593 12.185,8.464 11.091,8.360 11.070 C 8.051 11.007,7.967 11.003,7.770 11.040 " fill="#1A1C1F" stroke="none" fill-rule="evenodd"></path></svg>
